logo_white.svg

<svg xmlns="http://www.w3.org/2000/svg" viewBox="0 0 269 36"><path fill="#ffffff" fill-rule="evenodd" d="M28.43 28.43h-.003c-5.61 5.61-14.704 5.61-20.313 0-5.61-5.61-5.61-14.704 0-20.314s14.704-5.61 20.313 0h.002l2.062 2.062-1.677 1.677-2.064-2.063c-4.682-4.684-12.276-4.684-16.96 0s-4.684 12.278 0 16.962c4.684 4.683 12.278 4.683 16.962 0l.01.01 12.54-12.538-2.382-2.38-12.54 12.537-.003-.004a8.635 8.635 0 1 1-12.212-12.213 8.634 8.634 0 0 1 12.212 0l.004-.005 2.065 2.063-1.654 1.654-2.062-2.065a6.304 6.304 0 1 0 0 8.915L35.27 10.19l-4.46-4.458c-6.923-6.925-18.15-6.925-25.076 0-6.926 6.925-6.926 18.152 0 25.078 6.925 6.925 18.153 6.925 25.078 0l12.54-12.54-2.382-2.38zm-8.096-8.094-.013-.013a2.9 2.9 0 1 1 0-4.1l.014-.013 2.063 2.063-2.063 2.063zm36.028-8.363c-3.28 0-6.3 2.654-6.3 6.74 0 4.32 3.098 6.845 6.612 6.845 3.15 0 5.18-1.848 5.83-4.06l-2.89-.86c-.415 1.147-1.3 1.953-2.914 1.953-1.718 0-3.15-1.222-3.227-2.914h9.16c0-.052.053-.573.053-1.067 0-4.113-2.37-6.637-6.324-6.637zm-2.81 5.335c.077-1.17 1.066-2.525 2.862-2.525 1.978 0 2.81 1.25 2.862 2.525H53.55zm22.34-3.175h-8.043V6.716h-3.592v18.452h3.59v-7.652h8.043v7.652h3.62V6.716h-3.62v7.417zm13.787-3.488c1.014 0 1.846-.806 1.846-1.822a1.854 1.854 0 0 0-1.847-1.847c-1.042 0-1.823.833-1.823 1.847 0 1.016.78 1.822 1.822 1.822zm-5.466 0c1.015 0 1.847-.806 1.847-1.822 0-1.014-.83-1.847-1.846-1.847-1.015 0-1.822.833-1.822 1.847a1.81 1.81 0 0 0 1.822 1.822zm8.198 6.195c0-2.577-1.51-4.867-5.57-4.867-3.435 0-5.283 2.212-5.49 4.216l3.07.65c.104-1.12.937-2.083 2.446-2.083 1.458 0 2.16.755 2.16 1.666 0 .442-.234.807-.963.91l-3.148.47c-2.135.312-3.826 1.587-3.826 3.877 0 2.004 1.667 3.852 4.4 3.852 1.9 0 3.122-.885 3.773-1.9 0 .495.052 1.197.13 1.536h3.175a14.368 14.368 0 0 1-.156-2.03V16.84zm-3.383 3.148c0 2.265-1.355 2.968-2.812 2.968-1.12 0-1.666-.73-1.666-1.484 0-.99.703-1.484 1.588-1.614l2.89-.442zm5.388-13.663h3.46v18.842h-3.46zm11.27 11.087-1.823-.39c-.703-.13-1.17-.52-1.17-1.146 0-.728.728-1.275 1.638-1.275 1.458 0 2.004.964 2.11 1.72l2.887-.652c-.156-1.38-1.38-3.695-5.023-3.695-2.758 0-4.788 1.9-4.788 4.19 0 1.795 1.118 3.28 3.59 3.825l1.692.39c.99.21 1.38.678 1.38 1.25 0 .677-.547 1.275-1.692 1.275-1.51 0-2.265-.937-2.343-1.952l-2.967.652c.157 1.457 1.484 3.956 5.336 3.956 3.357 0 4.97-2.134 4.97-4.216 0-1.874-1.275-3.41-3.8-3.93zm11.278-5.44c-3.826 0-6.714 2.837-6.714 6.793 0 3.93 2.888 6.793 6.714 6.793s6.715-2.863 6.715-6.793c0-3.956-2.888-6.792-6.714-6.792zm0 10.437c-1.692 0-3.253-1.25-3.253-3.645 0-2.42 1.56-3.643 3.253-3.643 1.692 0 3.253 1.223 3.253 3.643s-1.562 3.644-3.254 3.644zm22.88-10.412c-1.692 0-3.046.573-4.06 2.135-.652-1.38-2.056-2.135-3.8-2.135-1.406 0-3.046.678-3.748 1.927v-1.562h-3.306v12.805h3.462v-7.496c0-1.405.885-2.524 2.394-2.524 1.562 0 2.264 1.04 2.264 2.42v7.6h3.436v-7.496c0-1.38.885-2.524 2.368-2.524 1.588 0 2.264 1.04 2.264 2.42v7.6h3.358v-8.303c0-3.435-2.265-4.867-4.633-4.867zm12.05 7.86-3.41-7.495h-3.876l5.44 11.19-3.02 6.663h3.67l8.042-17.853h-3.696zm14.883-7.834c-1.38 0-2.916.6-3.696 1.926v-1.587h-3.358v12.805h3.46v-7.366c0-1.483.886-2.654 2.396-2.654 1.665 0 2.368 1.12 2.368 2.55v7.47h3.462V17.1c0-2.81-1.458-5.076-4.633-5.076zm19.05-5.7h-3.41v7.314c-.365-.676-1.406-1.587-3.618-1.587-3.618 0-6.142 2.94-6.142 6.69 0 3.877 2.602 6.74 6.246 6.74 1.718 0 3.02-.78 3.592-1.796 0 .6.078 1.223.13 1.484h3.305a26.4 26.4 0 0 1-.104-2.317V6.326zm-6.508 16.06c-1.82 0-3.175-1.354-3.175-3.645 0-2.29 1.406-3.592 3.175-3.592 1.77 0 3.15 1.275 3.15 3.565 0 2.317-1.38 3.67-3.15 3.67zm8.833-10.02h3.46v12.804h-3.46zm1.717-6.35c-1.17 0-2.134.962-2.134 2.16 0 1.144.963 2.107 2.134 2.107a2.12 2.12 0 0 0 2.134-2.107c0-1.197-.936-2.16-2.134-2.16zm12.89 7.858c-.443-.86-1.614-1.743-3.644-1.743-3.514 0-5.96 2.86-5.96 6.245 0 3.59 2.55 6.22 5.96 6.22 1.848 0 3.045-.807 3.565-1.64v.937c0 2.472-1.223 3.566-3.41 3.566-1.638 0-2.757-1.015-2.992-2.42l-3.122.832c.364 2.446 2.707 4.633 6.22 4.633 4.815 0 6.715-3.202 6.715-6.715V12.363h-3.332v1.51zm-3.045 7.756c-1.796 0-3.07-1.25-3.07-3.253 0-1.978 1.352-3.227 3.07-3.227 1.665 0 3.02 1.25 3.02 3.227 0 1.978-1.25 3.253-3.02 3.253zm15.33-9.604c-1.222 0-2.627.417-3.46 1.406V6.325h-3.462v18.843h3.462v-7.522c.078-1.405.937-2.498 2.394-2.498 1.667 0 2.37 1.12 2.37 2.55v7.47h3.46V17.1c0-2.81-1.51-5.076-4.762-5.076zm12.31-.05c-3.28 0-6.298 2.653-6.298 6.74 0 4.32 3.096 6.844 6.61 6.844 3.15 0 5.18-1.848 5.83-4.06l-2.89-.86c-.416 1.147-1.3 1.953-2.914 1.953-1.718 0-3.15-1.222-3.227-2.914h9.16c0-.052.05-.573.05-1.067 0-4.113-2.367-6.637-6.323-6.637zm-2.81 5.334c.078-1.17 1.067-2.525 2.862-2.525 1.977 0 2.81 1.25 2.862 2.525h-5.726zm15.07-8.77h-3.123v1.795c0 1.145-.624 2.03-1.977 2.03h-.65v3.07h2.315v5.96c0 2.473 1.56 3.956 4.06 3.956 1.015 0 1.64-.182 1.952-.313v-2.862c-.182.05-.65.103-1.067.103-.988 0-1.51-.364-1.51-1.483v-5.36h2.577v-3.072h-2.576V8.537zm9.48 3.435c-3.278 0-6.298 2.654-6.298 6.74 0 4.32 3.097 6.845 6.61 6.845 3.15 0 5.18-1.848 5.83-4.06l-2.89-.86c-.416 1.147-1.3 1.953-2.914 1.953-1.717 0-3.15-1.222-3.227-2.914h9.16c0-.052.052-.573.052-1.067 0-4.113-2.368-6.637-6.325-6.637zm-2.81 5.335c.078-1.17 1.067-2.525 2.863-2.525 1.977 0 2.81 1.25 2.863 2.525zm17.617-5.284c-1.38 0-2.914.6-3.695 1.926v-1.587h-3.358v12.805h3.46v-7.366c0-1.483.886-2.654 2.395-2.654 1.666 0 2.37 1.12 2.37 2.55v7.47h3.46V17.1c0-2.81-1.457-5.076-4.633-5.076z"/></svg>

<?xml version="1.0" encoding="UTF-8" standalone="no"?>
<!DOCTYPE svg PUBLIC "-//W3C//DTD SVG 1.1//EN" "http://www.w3.org/Graphics/SVG/1.1/DTD/svg11.dtd">
<!-- Created with Vectornator (http://vectornator.io/) -->
<svg height="100%" stroke-miterlimit="10" style="fill-rule:nonzero;clip-rule:evenodd;stroke-linecap:round;stroke-linejoin:round;" version="1.1" viewBox="0 0 269 36" width="100%" xml:space="preserve" xmlns="http://www.w3.org/2000/svg" xmlns:xlink="http://www.w3.org/1999/xlink">
<defs/>
<clipPath id="ArtboardFrame">
<rect height="36" width="269" x="0" y="0"/>
</clipPath>
<g clip-path="url(#ArtboardFrame)" id="Untitled">
<path d="M28.43 8.112L28.427 8.112C22.817 2.502 13.723 2.502 8.114 8.112C2.504 13.722 2.504 22.816 8.114 28.426C13.724 34.036 22.818 34.036 28.427 28.426L28.429 28.426L30.491 26.364L28.814 24.687L26.75 26.75C22.068 31.434 14.474 31.434 9.79 26.75C5.106 22.066 5.106 14.472 9.79 9.788C14.474 5.105 22.068 5.105 26.752 9.788L26.762 9.778L39.302 22.316L36.92 24.696L24.38 12.159L24.377 12.163C21.0045 8.79075 15.5368 8.79097 12.1645 12.1635C8.79225 15.536 8.79247 21.0037 12.165 24.376C15.537 27.7489 21.005 27.7489 24.377 24.376L24.381 24.381L26.446 22.318L24.792 20.664L22.73 22.729C20.2682 25.1909 16.2766 25.191 13.8147 22.7291C11.3528 20.2673 11.3528 16.2757 13.8147 13.8139C16.2766 11.352 20.2682 11.3521 22.73 13.814L35.27 26.352L30.81 30.81C23.887 37.735 12.66 37.735 5.734 30.81C-1.192 23.885-1.192 12.658 5.734 5.732C12.659-1.193 23.887-1.193 30.812 5.732L43.352 18.272L40.97 20.652L28.43 8.112ZM20.334 16.206L20.321 16.219C19.1887 15.086 17.3522 15.0856 16.2194 16.2182C15.0866 17.3508 15.0866 19.1872 16.2194 20.3198C17.3522 21.4524 19.1887 21.452 20.321 20.319L20.335 20.332L22.398 18.269L20.335 16.206L20.334 16.206ZM75.892 14.133L67.849 14.133L67.849 6.716L64.257 6.716L64.257 25.168L67.847 25.168L67.847 17.516L75.89 17.516L75.89 25.168L79.51 25.168L79.51 6.716L75.89 6.716L75.89 14.133L75.892 14.133ZM89.679 10.645C90.693 10.645 91.525 9.839 91.525 8.823C91.5212 7.80452 90.6965 6.97984 89.678 6.976C88.636 6.976 87.855 7.809 87.855 8.823C87.855 9.839 88.635 10.645 89.677 10.645L89.679 10.645ZM84.213 10.645C85.228 10.645 86.06 9.839 86.06 8.823C86.06 7.809 85.23 6.976 84.214 6.976C83.199 6.976 82.392 7.809 82.392 8.823C82.3888 9.3072 82.5797 9.77251 82.9221 10.1149C83.2645 10.4573 83.7298 10.6482 84.214 10.645L84.213 10.645ZM92.411 16.84C92.411 14.263 90.901 11.973 86.841 11.973C83.406 11.973 81.558 14.185 81.351 16.189L84.421 16.839C84.525 15.719 85.358 14.756 86.867 14.756C88.325 14.756 89.027 15.511 89.027 16.422C89.027 16.864 88.793 17.229 88.064 17.332L84.916 17.802C82.781 18.114 81.09 19.389 81.09 21.679C81.09 23.683 82.757 25.531 85.49 25.531C87.39 25.531 88.612 24.646 89.263 23.631C89.263 24.126 89.315 24.828 89.393 25.167L92.568 25.167C92.4681 24.4949 92.4159 23.8165 92.412 23.137L92.412 16.84L92.411 16.84ZM89.028 19.988C89.028 22.253 87.673 22.956 86.216 22.956C85.096 22.956 84.55 22.226 84.55 21.472C84.55 20.482 85.253 19.988 86.138 19.858L89.028 19.416L89.028 19.988ZM62.321 16.837C62.321 14.26 60.811 11.97 56.751 11.97C53.316 11.97 51.468 14.182 51.261 16.186L54.331 16.836C54.435 15.716 55.268 14.753 56.777 14.753C58.235 14.753 58.937 15.508 58.937 16.419C58.937 16.861 58.703 17.226 57.974 17.329L54.826 17.799C52.691 18.111 51 19.386 51 21.676C51 23.68 52.667 25.528 55.4 25.528C57.3 25.528 58.522 24.643 59.173 23.628C59.173 24.123 59.225 24.825 59.303 25.164L62.478 25.164C62.3781 24.4919 62.3259 23.8135 62.322 23.134L62.322 16.837L62.321 16.837ZM58.938 19.985C58.938 22.25 57.583 22.953 56.126 22.953C55.006 22.953 54.46 22.223 54.46 21.469C54.46 20.479 55.163 19.985 56.048 19.855L58.938 19.413L58.938 19.985ZM94.416 6.325L97.876 6.325L97.876 25.167L94.416 25.167L94.416 6.325ZM105.686 17.412L103.863 17.022C103.16 16.892 102.693 16.502 102.693 15.876C102.693 15.148 103.421 14.601 104.331 14.601C105.789 14.601 106.335 15.565 106.441 16.321L109.328 15.669C109.172 14.289 107.948 11.974 104.305 11.974C101.547 11.974 99.517 13.874 99.517 16.164C99.517 17.959 100.635 19.444 103.107 19.989L104.799 20.379C105.789 20.589 106.179 21.057 106.179 21.629C106.179 22.306 105.632 22.904 104.487 22.904C102.977 22.904 102.222 21.967 102.144 20.952L99.177 21.604C99.334 23.061 100.661 25.56 104.513 25.56C107.87 25.56 109.483 23.426 109.483 21.344C109.483 19.47 108.208 17.934 105.683 17.414L105.686 17.412ZM116.964 11.972C113.138 11.972 110.25 14.809 110.25 18.765C110.25 22.695 113.138 25.558 116.964 25.558C120.79 25.558 123.679 22.695 123.679 18.765C123.679 14.809 120.791 11.973 116.965 11.973L116.964 11.972ZM116.964 22.409C115.272 22.409 113.711 21.159 113.711 18.764C113.711 16.344 115.271 15.121 116.964 15.121C118.656 15.121 120.217 16.344 120.217 18.764C120.217 21.184 118.655 22.408 116.963 22.408L116.964 22.409ZM139.844 11.997C138.152 11.997 136.798 12.57 135.784 14.132C135.132 12.752 133.728 11.997 131.984 11.997C130.578 11.997 128.938 12.675 128.236 13.924L128.236 12.362L124.93 12.362L124.93 25.167L128.392 25.167L128.392 17.671C128.392 16.266 129.277 15.147 130.786 15.147C132.348 15.147 133.05 16.187 133.05 17.567L133.05 25.167L136.486 25.167L136.486 17.671C136.486 16.291 137.371 15.147 138.854 15.147C140.442 15.147 141.118 16.187 141.118 17.567L141.118 25.167L144.476 25.167L144.476 16.864C144.476 13.429 142.211 11.997 139.843 11.997L139.844 11.997ZM151.894 19.857L148.484 12.362L144.608 12.362L150.048 23.552L147.028 30.215L150.698 30.215L158.74 12.362L155.044 12.362L151.894 19.857ZM166.777 12.023C165.397 12.023 163.861 12.623 163.081 13.949L163.081 12.362L159.723 12.362L159.723 25.167L163.183 25.167L163.183 17.801C163.183 16.318 164.069 15.147 165.579 15.147C167.244 15.147 167.947 16.267 167.947 17.697L167.947 25.167L171.409 25.167L171.409 17.1C171.409 14.29 169.951 12.024 166.776 12.024L166.777 12.023ZM185.827 6.323L182.417 6.323L182.417 13.637C182.052 12.961 181.011 12.05 178.799 12.05C175.181 12.05 172.657 14.99 172.657 18.74C172.657 22.617 175.259 25.48 178.903 25.48C180.621 25.48 181.923 24.7 182.495 23.684C182.495 24.284 182.573 24.907 182.625 25.168L185.93 25.168C185.861 24.3976 185.827 23.6245 185.826 22.851L185.826 6.326L185.827 6.323ZM179.319 22.383C177.499 22.383 176.144 21.029 176.144 18.738C176.144 16.448 177.55 15.146 179.319 15.146C181.089 15.146 182.469 16.421 182.469 18.711C182.469 21.028 181.089 22.381 179.319 22.381L179.319 22.383ZM188.152 12.363L191.612 12.363L191.612 25.167L188.152 25.167L188.152 12.363ZM189.869 6.013C188.699 6.013 187.735 6.975 187.735 8.173C187.735 9.317 188.698 10.28 189.869 10.28C191.04 10.2878 191.996 9.34425 192.003 8.173C192.003 6.976 191.067 6.013 189.869 6.013ZM202.759 13.871C202.316 13.011 201.145 12.128 199.115 12.128C195.601 12.128 193.155 14.988 193.155 18.373C193.155 21.963 195.705 24.593 199.115 24.593C200.963 24.593 202.16 23.786 202.68 22.953L202.68 23.89C202.68 26.362 201.457 27.456 199.27 27.456C197.632 27.456 196.513 26.441 196.278 25.036L193.156 25.868C193.52 28.314 195.863 30.501 199.376 30.501C204.191 30.501 206.091 27.299 206.091 23.786L206.091 12.363L202.759 12.363L202.759 13.873L202.759 13.871ZM199.714 21.627C197.918 21.627 196.644 20.377 196.644 18.374C196.644 16.396 197.996 15.147 199.714 15.147C201.379 15.147 202.734 16.397 202.734 18.374C202.734 20.352 201.484 21.627 199.714 21.627ZM215.044 12.023C213.822 12.023 212.417 12.44 211.584 13.429L211.584 6.325L208.122 6.325L208.122 25.168L211.584 25.168L211.584 17.646C211.662 16.241 212.521 15.148 213.978 15.148C215.645 15.148 216.348 16.268 216.348 17.698L216.348 25.168L219.808 25.168L219.808 17.1C219.808 14.29 218.298 12.024 215.046 12.024L215.044 12.023ZM227.354 11.973C224.074 11.973 221.056 14.626 221.056 18.713C221.056 23.033 224.152 25.557 227.666 25.557C230.816 25.557 232.846 23.709 233.496 21.497L230.606 20.637C230.19 21.784 229.306 22.59 227.692 22.59C225.974 22.59 224.542 21.368 224.465 19.676L233.625 19.676C233.625 19.624 233.675 19.103 233.675 18.609C233.675 14.496 231.308 11.972 227.352 11.972L227.354 11.973ZM224.544 17.307C224.622 16.137 225.611 14.782 227.406 14.782C229.383 14.782 230.216 16.032 230.268 17.307L224.542 17.307L224.544 17.307ZM239.614 8.537L236.491 8.537L236.491 10.332C236.491 11.477 235.867 12.362 234.514 12.362L233.864 12.362L233.864 15.432L236.179 15.432L236.179 21.392C236.179 23.865 237.739 25.348 240.239 25.348C241.254 25.348 241.879 25.166 242.191 25.035L242.191 22.173C242.009 22.223 241.541 22.276 241.124 22.276C240.136 22.276 239.614 21.912 239.614 20.793L239.614 15.433L242.191 15.433L242.191 12.361L239.615 12.361L239.615 8.537L239.614 8.537ZM249.094 11.972C245.816 11.972 242.796 14.626 242.796 18.712C242.796 23.032 245.893 25.557 249.406 25.557C252.556 25.557 254.586 23.709 255.236 21.497L252.346 20.637C251.93 21.784 251.046 22.59 249.432 22.59C247.715 22.59 246.282 21.368 246.205 19.676L255.365 19.676C255.365 19.624 255.417 19.103 255.417 18.609C255.417 14.496 253.049 11.972 249.092 11.972L249.094 11.972ZM246.284 17.307C246.362 16.137 247.351 14.782 249.147 14.782C251.124 14.782 251.957 16.032 252.01 17.307L246.284 17.307ZM263.901 12.023C262.521 12.023 260.987 12.623 260.206 13.949L260.206 12.362L256.848 12.362L256.848 25.167L260.308 25.167L260.308 17.801C260.308 16.318 261.194 15.147 262.703 15.147C264.369 15.147 265.073 16.267 265.073 17.697L265.073 25.167L268.533 25.167L268.533 17.1C268.533 14.29 267.076 12.024 263.9 12.024L263.901 12.023Z" fill="#ffffff" fill-rule="nonzero" opacity="1" stroke="none"/>
</g>
</svg>
